src/assets/images/cryptomus.svg

<svg width="36" height="42" viewBox="0 0 36 42" fill="none" xmlns="http://www.w3.org/2000/svg">
<g clip-path="url(#clip0_2653_24605)">
<path d="M34.8437 9.9584L19.1477 0.907676C18.7977 0.707093 18.4013 0.601562 17.9979 0.601562C17.5944 0.601563 17.198 0.707093 16.848 0.907676L1.15197 9.9584C0.802226 10.1603 0.511702 10.4506 0.309518 10.8002C0.107334 11.1498 0.000595193 11.5464 0 11.9503V30.0509C0 30.8684 0.441016 31.6301 1.15197 32.0427L16.848 41.0935C17.1984 41.2951 17.5958 41.4007 18 41.3995C18.4049 41.3995 18.8021 41.292 19.152 41.0935L34.848 32.0427C35.1976 31.8409 35.4881 31.5507 35.6903 31.2013C35.8924 30.8518 35.9993 30.4554 36 30.0517V11.9503C36 11.1336 35.559 10.371 34.848 9.9584H34.8437ZM18.3533 19.8783C18.2452 19.9404 18.1226 19.9731 17.9979 19.9731C17.8731 19.9731 17.7505 19.9404 17.6424 19.8783L2.38304 11.0803L17.6424 2.28574C17.7511 2.22522 17.8734 2.19345 17.9979 2.19345C18.1223 2.19345 18.2446 2.22522 18.3533 2.28574L33.6127 11.082L18.3533 19.8783ZM16.848 21.2503C16.9592 21.3145 17.0784 21.3689 17.2057 21.4136V39.4583L1.94632 30.6664C1.83817 30.6042 1.74822 30.5146 1.68547 30.4068C1.62272 30.2989 1.58935 30.1765 1.58869 30.0517V12.4541L16.848 21.2503Z" fill="black"/>
</g>
<defs>
<clipPath id="clip0_2653_24605">
<rect width="36" height="40.798" fill="white" transform="translate(0 0.601562)"/>
</clipPath>
</defs>
</svg>

<svg width="48" height="42" viewBox="0 0 36 42" fill="none" xmlns="http://www.w3.org/2000/svg"><g clip-path="url(#a)"><path d="M34.844 9.958 19.148.908a2.31 2.31 0 0 0-2.3 0L1.152 9.958A2.3 2.3 0 0 0 0 11.95v18.1c0 .818.441 1.58 1.152 1.993l15.696 9.05c.35.202.748.308 1.152.306.405 0 .802-.107 1.152-.306l15.696-9.05A2.3 2.3 0 0 0 36 30.052V11.95c0-.816-.441-1.579-1.152-1.992zm-16.49 9.92a.71.71 0 0 1-.712 0L2.383 11.08l15.26-8.794a.73.73 0 0 1 .71 0l15.26 8.796zm-1.506 1.372q.166.096.358.164v18.044l-15.26-8.792a.71.71 0 0 1-.357-.614V12.454z" fill="#000"/></g><defs><clipPath id="a"><path fill="#fff" d="M0 .602h36V41.4H0z"/></clipPath></defs></svg>
